styles/images/svg/phone.svg

<svg xmlns="http://www.w3.org/2000/svg" style="isolation:isolate" width="24" height="24"><defs><clipPath id="a"><path d="M0 0h24v24H0z"/></clipPath></defs><g clip-path="url(#a)"><path fill="#fff" d="M20.023 15.488c-.63-.015-1.423-.052-1.924-.14a14.67 14.67 0 0 1-1.653-.425 1.017 1.017 0 0 0-1.019.253L13.21 17.38a15.376 15.376 0 0 1-3.798-2.792A15.376 15.376 0 0 1 6.62 10.79l2.204-2.218c.266-.267.365-.659.253-1.019-.142-.458-.329-1.11-.424-1.652-.089-.501-.125-1.294-.141-1.924A1 1 0 0 0 7.51 3H4c-.438 0-1 .328-1 1 0 4.539 1.84 8.874 4.966 12.034C11.126 19.16 15.461 21 20 21c.672 0 1-.562 1-1v-3.51a1 1 0 0 0-.977-1.002z"/></g></svg>

<svg xmlns="http://www.w3.org/2000/svg" style="isolation:isolate" width="24" height="24"><path fill="currentColor" xmlns="http://www.w3.org/2000/svg" d=" M 20.023 15.488 C 19.393 15.473 18.6 15.436 18.099 15.348 C 17.54 15.239 16.988 15.097 16.446 14.923 C 16.086 14.812 15.694 14.909 15.427 15.176 L 13.21 17.38 C 11.808 16.65 10.527 15.708 9.412 14.588 C 8.292 13.473 7.35 12.192 6.62 10.79 L 8.824 8.572 C 9.09 8.305 9.189 7.913 9.077 7.553 C 8.935 7.095 8.748 6.443 8.653 5.901 C 8.564 5.4 8.528 4.607 8.512 3.977 C 8.499 3.433 8.054 2.999 7.51 3 L 4 3 C 3.562 3 3 3.328 3 4 C 3 8.539 4.84 12.874 7.966 16.034 C 11.126 19.16 15.461 21 20 21 C 20.672 21 21 20.438 21 20 L 21 16.49 C 21.001 15.946 20.567 15.501 20.023 15.488 L 20.023 15.488 Z "/></svg>
